svg/tag_outline.svg

<?xml version="1.0" encoding="UTF-8"?><!DOCTYPE svg PUBLIC "-//W3C//DTD SVG 1.1//EN" "http://www.w3.org/Graphics/SVG/1.1/DTD/svg11.dtd"><svg xmlns="http://www.w3.org/2000/svg" xmlns:xlink="http://www.w3.org/1999/xlink" version="1.1" id="mdi-tag-outline" width="24" height="24" viewBox="0 0 24 24"><path d="M21.41 11.58L12.41 2.58A2 2 0 0 0 11 2H4A2 2 0 0 0 2 4V11A2 2 0 0 0 2.59 12.42L11.59 21.42A2 2 0 0 0 13 22A2 2 0 0 0 14.41 21.41L21.41 14.41A2 2 0 0 0 22 13A2 2 0 0 0 21.41 11.58M13 20L4 11V4H11L20 13M6.5 5A1.5 1.5 0 1 1 5 6.5A1.5 1.5 0 0 1 6.5 5Z" /></svg>

<svg xmlns="http://www.w3.org/2000/svg" viewBox="0 0 24 24"><path d="m21.41 11.58-9-9A2 2 0 0 0 11 2H4a2 2 0 0 0-2 2v7a2 2 0 0 0 .59 1.42l9 9A2 2 0 0 0 13 22a2 2 0 0 0 1.41-.59l7-7A2 2 0 0 0 22 13a2 2 0 0 0-.59-1.42M13 20l-9-9V4h7l9 9M6.5 5A1.5 1.5 0 1 1 5 6.5 1.5 1.5 0 0 1 6.5 5"/></svg>
